public/img/assets/icons/settings-marker.svg

<svg width="25" height="24" viewBox="0 0 25 24" fill="none" xmlns="http://www.w3.org/2000/svg">
<path d="M10.8246 4.31731C11.251 2.5609 13.749 2.5609 14.1754 4.31731C14.4508 5.45193 15.7507 5.99038 16.7478 5.38285C18.2913 4.44239 20.0576 6.2087 19.1172 7.75218C18.5096 8.74925 19.0481 10.0492 20.1827 10.3246C21.9391 10.751 21.9391 13.249 20.1827 13.6754C19.0481 13.9508 18.5096 15.2507 19.1172 16.2478C20.0576 17.7913 18.2913 19.5576 16.7478 18.6172C15.7507 18.0096 14.4508 18.5481 14.1754 19.6827C13.749 21.4391 11.251 21.4391 10.8246 19.6827C10.5492 18.5481 9.24926 18.0096 8.25219 18.6172C6.7087 19.5576 4.94239 17.7913 5.88285 16.2478C6.49038 15.2507 5.95193 13.9508 4.81731 13.6754C3.0609 13.249 3.0609 10.751 4.81731 10.3246C5.95193 10.0492 6.49037 8.74926 5.88285 7.75218C4.94239 6.2087 6.7087 4.44239 8.25219 5.38285C9.24926 5.99037 10.5492 5.45193 10.8246 4.31731Z" stroke="#6892B9" stroke-width="1.5" stroke-linecap="round" stroke-linejoin="round"/>
<path d="M15.5 12C15.5 13.6569 14.1569 15 12.5 15C10.8431 15 9.5 13.6569 9.5 12C9.5 10.3431 10.8431 9 12.5 9C14.1569 9 15.5 10.3431 15.5 12Z" stroke="#6892B9" stroke-width="1.5" stroke-linecap="round" stroke-linejoin="round"/>
</svg>

<svg width="25" height="24" fill="none" xmlns="http://www.w3.org/2000/svg"><path d="M10.825 4.317c.426-1.756 2.924-1.756 3.35 0a1.724 1.724 0 0 0 2.573 1.066c1.543-.94 3.31.826 2.37 2.37a1.724 1.724 0 0 0 1.065 2.572c1.756.426 1.756 2.924 0 3.35a1.724 1.724 0 0 0-1.066 2.573c.94 1.543-.826 3.31-2.37 2.37a1.724 1.724 0 0 0-2.572 1.065c-.426 1.756-2.924 1.756-3.35 0a1.724 1.724 0 0 0-2.573-1.066c-1.543.94-3.31-.826-2.37-2.37a1.724 1.724 0 0 0-1.065-2.572c-1.756-.426-1.756-2.924 0-3.35a1.724 1.724 0 0 0 1.066-2.573c-.94-1.543.826-3.31 2.37-2.37.996.608 2.296.07 2.572-1.065Z" stroke="#6892B9" stroke-width="1.5" stroke-linecap="round" stroke-linejoin="round"/><path d="M15.5 12a3 3 0 1 1-6 0 3 3 0 0 1 6 0Z" stroke="#6892B9" stroke-width="1.5" stroke-linecap="round" stroke-linejoin="round"/></svg>
